icons/svg/cellphone-basic.svg

<svg xmlns="http://www.w3.org/2000/svg" version="1.1" baseProfile="full" width="24" height="24" viewBox="0 0 24.00 24.00" xml:space="preserve"><path fill="#000" fill-opacity="1" stroke-width="1.333" stroke-linejoin="miter" d="M15 2c-.554 0-1 .446-1 1v3h-4c-1.108 0-2 .892-2 2v12c0 1.108.892 2 2 2h5c1.108 0 2-.892 2-2V8c0-.74-.404-1.38-1-1.725V3c0-.554-.446-1-1-1zm-5 6h5v5h-5V8zm0 7h1v1h-1v-1zm2 0h1v1h-1v-1zm2 0h1v1h-1v-1zm-4 2h1v1h-1v-1zm2 0h1v1h-1v-1zm2 0h1v1h-1v-1zm-4 2h1v1h-1v-1zm2 0h1v1h-1v-1zm2 0h1v1h-1v-1z"/></svg>

﻿<?xml version="1.0" encoding="utf-8"?>
<!DOCTYPE svg PUBLIC "-//W3C//DTD SVG 1.1//EN" "http://www.w3.org/Graphics/SVG/1.1/DTD/svg11.dtd">
<svg xmlns="http://www.w3.org/2000/svg" xmlns:xlink="http://www.w3.org/1999/xlink" version="1.1" baseProfile="full" width="24" height="24" viewBox="0 0 24.00 24.00" enable-background="new 0 0 24.00 24.00" xml:space="preserve">
	<path fill="#000000" fill-opacity="1" stroke-width="1.33333" stroke-linejoin="miter" d="M 15,2C 14.446,2 14,2.446 14,3L 14,6L 10,6C 8.89199,6 8,6.892 8,8L 8,20C 8,21.108 8.89199,22 10,22L 15,22C 16.108,22 17,21.108 17,20L 17,8C 17,7.2589 16.5958,6.621 16,6.2754L 16,3C 16,2.446 15.554,2 15,2 Z M 10,8L 15,8L 15,13L 10,13L 10,8 Z M 10,15L 11,15L 11,16L 10,16L 10,15 Z M 12,15L 13,15L 13,16L 12,16L 12,15 Z M 14,15L 15,15L 15,16L 14,16L 14,15 Z M 10,17L 11,17L 11,18L 10,18L 10,17 Z M 12,17L 13,17L 13,18L 12,18L 12,17 Z M 14,17L 15,17L 15,18L 14,18L 14,17 Z M 10,19L 11,19L 11,20L 10,20L 10,19 Z M 12,19L 13,19L 13,20L 12,20L 12,19 Z M 14,19L 15,19L 15,20L 14,20L 14,19 Z "/>
</svg>
